X: 7
T: The Kesh
R: jig
M: 6/8
L: 1/8
K: Gmaj
|:G2D GAB | A2G ABd | ede gdB | B2G G2D |
G2D GAB | A2G ABd | ede gdB | B2A G3 :|
|:Bgg dgg | Bgg dgg | Bgg dgg | B2G AGE |
Bgg dgg | ~g2e d3 | g3 a3 |1 bgg g3 :|2 bgg B2A |


Tune 55	Setting 12492

